X:12875
T:Pasucáis (CT 299)
Z:Cancioneru de Torner 299
M:6/8
L:1/8
Q:3/8=100
K:G
 "Entamu"
 B2 c | def gfg | e2e gfe | dcB cBA | G3
 "Canciu" 
 GG B | ddd e2e | d2d cAG | FFA d2c | A2G GGB |
 | ddd e2e | d2d cAG | FF A d2c | A2G GFG |
 | AGG c2B | A2G GFG | AGG ccB | A2G GFG |
 | AGG c2B | A2G GFG | A2G c2B | A2G GFG |
 | AA BcBA | G3 GFG | ABc ddd | G3 
 "Final"
 B2c | def gfg | e3 gfe | dcB cBA | G3 ||


